ezinsureLP/assets/images/fa-solid_check.svg

<svg width="16" height="16" viewBox="0 0 16 16" fill="none" xmlns="http://www.w3.org/2000/svg">
<path d="M5.4343 13.7315L0.234305 8.53148C-0.0781016 8.21907 -0.0781016 7.71254 0.234305 7.4001L1.36565 6.26873C1.67805 5.95629 2.18462 5.95629 2.49702 6.26873L5.99999 9.77167L13.503 2.26873C13.8154 1.95632 14.3219 1.95632 14.6343 2.26873L15.7657 3.4001C16.0781 3.71251 16.0781 4.21904 15.7657 4.53148L6.56568 13.7315C6.25324 14.0439 5.74671 14.0439 5.4343 13.7315Z" fill="#00AFEF"/>
</svg>

<svg width="16" height="16" fill="none" xmlns="http://www.w3.org/2000/svg"><path d="m5.434 13.732-5.2-5.2a.8.8 0 0 1 0-1.132L1.366 6.27a.8.8 0 0 1 1.131 0L6 9.772l7.503-7.503a.8.8 0 0 1 1.131 0L15.766 3.4a.8.8 0 0 1 0 1.131l-9.2 9.2a.8.8 0 0 1-1.132 0z" fill="#00AFEF"/></svg>
